X: 2419
M: C
L: 1/8
K: Am
|:\
vA,2B,2 C<A, zB, | (.C2.D2) E4 |\
(3(cdc) G2 (3(cdc) G2 | (3(cdc) G2 c>cB>c |\
(3(ded) G2 (3(ded) G2 | (3(ded) G2 d>dc>d |\
e2e2 (3(FGF) E2 | e2e2 (3(FGF) E2 |
(3(FGF) E2 (3(FGF) E2 | E>FE>F E>DC>B, |:\
vA,<A, zuB, C>A,B,>C | D<D zE F>DE>F |\
E>^GBc d>BG>B |[1 A>cB>^G A>GC>B, ||[2 A<AE>C A,2 |]


